round/svg/tab_unselected.svg

<svg xmlns="http://www.w3.org/2000/svg" width="24" height="24"><path fill="none" d="M0 0h24v24H0V0z"/><g fill="currentColor"><path d="M1 9h2V7H1v2zm0 4h2v-2H1v2zm0-8h2V3c-1.1 0-2 .9-2 2zm8 16h2v-2H9v2zm-8-4h2v-2H1v2zm2 4v-2H1c0 1.1.9 2 2 2zM21 3h-8v5c0 .55.45 1 1 1h9V5c0-1.1-.9-2-2-2zm0 14h2v-2h-2v2zM9 5h2V3H9v2zM5 21h2v-2H5v2zM5 5h2V3H5v2zm16 16c1.1 0 2-.9 2-2h-2v2zm0-8h2v-2h-2v2zm-8 8h2v-2h-2v2zm4 0h2v-2h-2v2z"/></g></svg>

<?xml version="1.0" encoding="utf-8"?>
<!-- Generator: Adobe Illustrator 19.1.0, SVG Export Plug-In . SVG Version: 6.00 Build 0)  -->
<svg version="1.1" xmlns="http://www.w3.org/2000/svg" xmlns:xlink="http://www.w3.org/1999/xlink" x="0px" y="0px" width="24px"
	 height="24px" viewBox="0 0 24 24" enable-background="new 0 0 24 24" xml:space="preserve">
<g id="Bounding_Boxes">
	<g id="ui_x5F_spec_x5F_header_copy_3">
	</g>
	<path fill="none" d="M0,0h24v24H0V0z"/>
</g>
<g id="Rounded" fill="currentColor">
	<g id="ui_x5F_spec_x5F_header_copy_5">
	</g>
	<path d="M1,9h2V7H1V9z M1,13h2v-2H1V13z M1,5h2V3C1.9,3,1,3.9,1,5z M9,21h2v-2H9V21z M1,17h2v-2H1V17z M3,21v-2H1
		C1,20.1,1.9,21,3,21z M21,3h-8v5c0,0.55,0.45,1,1,1h9V5C23,3.9,22.1,3,21,3z M21,17h2v-2h-2V17z M9,5h2V3H9V5z M5,21h2v-2H5V21z
		 M5,5h2V3H5V5z M21,21c1.1,0,2-0.9,2-2h-2V21z M21,13h2v-2h-2V13z M13,21h2v-2h-2V21z M17,21h2v-2h-2V21z"/>
</g>
</svg>
